X: 20310
T: John Brennan's
R: reel
M: 4/4
K: Dmajor
D2FA d2ed|cdBc AF~F2|BAGB ADFA|BAGF EGFE|
D2FA d2ed|cdBc AF~F2|BAGB ABde|faeg fdd2:|
f2df efde|fedB AF~F2|BAGB ADFA|BAGF EFGA|
f2df e2de|fedB AF~F2|BAGB ABde|faea fdde|
f2df efde|fedB AF~F2|BAGB ADFA|BAGF EGFE|
D2FA d2ed|cdBc AF~F2|BAGB ABde|faeg fdd2||

